X:1
T:Treviso, CMD
T:Treviso, CMD
T:C. A. Shaw, 1892
T:Public Domain Courtesy of the Cyber Hymnal™
C:C. A. Shaw, 1892
Z:Public Domain
Z:Courtesy of the Cyber Hymnal™
%%score ( 1 2 ) ( 3 4 )
L:1/8
Q:1/4=103
M:6/8
K:Ab
V:1 treble 
V:2 treble 
V:3 bass 
V:4 bass 
V:1
 [CE] | [Ec]2 [Ec] ([Fd][Ec])[EB] | [EA]2 [EA] (BA)[DF] | [CE]2 [CE] (AB)[Ec] | [EB]3- [EB]2 E | %5
 [Ec]2 [Ec] ([Fd][Ec])[EB] | [EA]2 [EA] (BA)[DF] | ([CE][EA])[Ed] [Ec]2 [DB] | %8
 [CA]3- [CA]2 !fermata![Ec] | [CA]2 [DF] [CE]2 [CE] | ([DF][FA])[Fd] [Ec]2 [Ec] | %11
 [Fc]2 [FB] ([EA][DG])[CA] | [DB]3- [DB]2 [DE] | ([CE][EA])[EB] [Ec]2 [Ec] | %14
 [Ec][CA][Fd] [Ec]2 [CE] | ([DF][FA])[Fd] [Ec]2 [DB] | [CA]3- [CA]2 |] %17
V:2
 x | x6 | x3 F2 x | x3 E2 x | x5 E | x6 | x3 F2 x | x6 | x6 | x6 | x6 | x6 | x6 | x6 | x6 | x6 | %16
 x5 |] %17
V:3
 [A,,A,] | [A,,A,]2 [A,,A,] [A,,A,]2 [B,,G,] | [C,A,]2 [C,A,] [D,A,]2 [D,A,] | %3
 [A,,A,]2 [A,,A,] ([C,A,][B,,G,])[A,,A,] | [E,G,]3- [E,G,]2 [E,G,] | %5
 [A,,A,]2 [A,,A,] [A,,A,]2 [B,,G,] | [C,A,]2 [C,A,] [D,A,]2 [D,A,] | (A,C)[E,B,] [E,A,]2 [E,G,] | %8
 [A,,A,]3- [A,,A,]2 !fermata![A,,A,] | [A,,A,]2 [A,,A,] [A,,A,]2 [A,,A,] | [D,A,]2 [F,A,] A,2 A, | %11
 [F,A,]2 [D,A,] ([C,A,][B,,E,])[A,,A,] | [E,G,]3- [E,G,]2 [E,G,] | A,2 [E,G,] A,2 A, | %14
 [A,,A,]2 [A,,A,] [A,,A,]2 [A,,A,] | [D,A,]2 [B,,A,] [E,A,]2 [E,G,] | [A,,A,]3- [A,,A,]2 |] %17
V:4
 x | x6 | x6 | x6 | x6 | x6 | x6 | E,2 x4 | x6 | x6 | x3 A,2 A, | x6 | x6 | (A,,C,) A,2 A, x | x6 | %15
 x6 | x5 |] %17

